X:30
T:Mrs Casey
R:jig
C:trad
M:6/8
L:1/8
K:G
B2A|G3/2z/2E EFE|D2B,D2G|(3EFED EFG|B3 B2A|G3/2z/2E EFE|D2B,D2D|EFG 
A2F|G3:|
|:D2 E/2F/2|G2A B2c|d2e d2B|G2A B2c|d3 dBd|e2c d2B|c2B A2G|G2F E2D|c3 
B2A|
G3/2z/2E EFE|D2B,D3|(3EFED EFG|B3 B2A|G3/2z/2E EFE|D2B,D2G|EFG 
A2F|G3:|

